X: 18
T: Rasputin
R: shottish
Z: John Chambers <jc@trillian.mit.edu>
M: C
L: 1/8
K: Am
|: "Am"A2 Ac e2 e2 | "Dm"f2 fa "Am"e2 e2 | "E7"d2 d2 "Am"c2 c2 | "E7"B2 e2 e>d cB | "Am"A2 Ac e2 e2 |
| "Dm"f2 fa "Am"e2 e2 | "E7"d>c B2 Bd cB | "Am"A2 c2 A2 z2 :: "G7"g2 g2 g3 f | "C"f>e e"(#)"d e4 |
| "E7"e2 e2 e3 d | "Am"d>c cB c4 | "Dm"f2 {e}de fe d2 | "Am"e2 {d}cd ed c2 | "E7"~E2 ^DE c2 B2 | "Am"B>A A^G A2 z2 :|
%%sep 1 1 10cm
